assets/images/page-load.svg

<svg width="179" height="120" viewBox="0 0 179 120" fill="none" xmlns="http://www.w3.org/2000/svg">
<path fill-rule="evenodd" clip-rule="evenodd" d="M0.000740051 89.1318C0.19912 39.8717 40.1933 0 89.5 0C138.807 0 178.801 39.8717 178.999 89.1318H179V89.5V119.914H0V89.5V89.1318H0.000740051Z" fill="#1539CF"/>
<path fill-rule="evenodd" clip-rule="evenodd" d="M89.8683 28.7284C56.1017 28.7284 28.7284 56.1017 28.7284 89.8683H16.9424C16.9424 49.5924 49.5924 16.9424 89.8683 16.9424C130.144 16.9424 162.794 49.5924 162.794 89.8683H151.008C151.008 56.1017 123.635 28.7284 89.8683 28.7284Z" fill="white"/>
<path d="M82.5021 83.607L89.8684 96.3657L119.996 70.4658L82.5021 83.607Z" fill="white"/>
<path d="M22.96 110.657C21.65 110.657 20.66 110.227 19.99 109.367C19.33 108.507 19 107.237 19 105.557C19 103.877 19.33 102.607 19.99 101.747C20.66 100.887 21.65 100.457 22.96 100.457C24.27 100.457 25.255 100.887 25.915 101.747C26.585 102.607 26.92 103.877 26.92 105.557C26.92 107.237 26.585 108.507 25.915 109.367C25.255 110.227 24.27 110.657 22.96 110.657ZM22.96 108.992C23.6 108.992 24.075 108.712 24.385 108.152C24.695 107.592 24.85 106.727 24.85 105.557C24.85 104.387 24.695 103.522 24.385 102.962C24.075 102.402 23.6 102.122 22.96 102.122C22.32 102.122 21.845 102.402 21.535 102.962C21.225 103.522 21.07 104.387 21.07 105.557C21.07 106.727 21.225 107.592 21.535 108.152C21.845 108.712 22.32 108.992 22.96 108.992Z" fill="white"/>
<path d="M147.68 100.607V110.507H145.67V103.127C145.67 102.967 145.675 102.842 145.685 102.752C145.325 103.082 144.935 103.362 144.515 103.592C144.105 103.822 143.69 103.977 143.27 104.057L143 102.317C143.46 102.267 144.01 102.062 144.65 101.702C145.3 101.332 145.75 100.967 146 100.607H147.68Z" fill="white"/>
<path d="M155.221 110.657C153.911 110.657 152.921 110.227 152.251 109.367C151.591 108.507 151.261 107.237 151.261 105.557C151.261 103.877 151.591 102.607 152.251 101.747C152.921 100.887 153.911 100.457 155.221 100.457C156.531 100.457 157.516 100.887 158.176 101.747C158.846 102.607 159.181 103.877 159.181 105.557C159.181 107.237 158.846 108.507 158.176 109.367C157.516 110.227 156.531 110.657 155.221 110.657ZM155.221 108.992C155.861 108.992 156.336 108.712 156.646 108.152C156.956 107.592 157.111 106.727 157.111 105.557C157.111 104.387 156.956 103.522 156.646 102.962C156.336 102.402 155.861 102.122 155.221 102.122C154.581 102.122 154.106 102.402 153.796 102.962C153.486 103.522 153.331 104.387 153.331 105.557C153.331 106.727 153.486 107.592 153.796 108.152C154.106 108.712 154.581 108.992 155.221 108.992Z" fill="white"/>
<path d="M166.257 110.657C164.947 110.657 163.957 110.227 163.287 109.367C162.627 108.507 162.297 107.237 162.297 105.557C162.297 103.877 162.627 102.607 163.287 101.747C163.957 100.887 164.947 100.457 166.257 100.457C167.567 100.457 168.552 100.887 169.212 101.747C169.882 102.607 170.217 103.877 170.217 105.557C170.217 107.237 169.882 108.507 169.212 109.367C168.552 110.227 167.567 110.657 166.257 110.657ZM166.257 108.992C166.897 108.992 167.372 108.712 167.682 108.152C167.992 107.592 168.147 106.727 168.147 105.557C168.147 104.387 167.992 103.522 167.682 102.962C167.372 102.402 166.897 102.122 166.257 102.122C165.617 102.122 165.142 102.402 164.832 102.962C164.522 103.522 164.367 104.387 164.367 105.557C164.367 106.727 164.522 107.592 164.832 108.152C165.142 108.712 165.617 108.992 166.257 108.992Z" fill="white"/>
</svg>

<svg xmlns="http://www.w3.org/2000/svg" enable-background="new 0 0 179 120" viewBox="0 0 179 120"><path fill="#1539cf" fill-rule="evenodd" d="M0 89.1C.2 39.9 40.2 0 89.5 0s89.3 39.9 89.5 89.1V119.9H0V89.5z" clip-rule="evenodd"/><path fill="#fff" fill-rule="evenodd" d="M89.9 27.7c-34 0-61.6 27.3-62.1 61.1H18c.5-39.3 32.5-70.9 71.9-70.9s71.4 31.7 71.9 70.9H152c-.5-33.8-28.1-61.1-62.1-61.1z" clip-rule="evenodd"/><path d="M82.5 83.6l7.4 12.8L120 70.5z"/><g fill="#fff"><path d="M23 110.7c-1.3 0-2.3-.4-3-1.3s-1-2.1-1-3.8.3-2.9 1-3.8 1.7-1.3 3-1.3 2.3.4 3 1.3 1 2.1 1 3.8-.3 2.9-1 3.8c-.7.8-1.7 1.3-3 1.3zm0-1.7c.6 0 1.1-.3 1.4-.8s.5-1.4.5-2.6-.2-2-.5-2.6-.8-.8-1.4-.8-1.1.3-1.4.8-.5 1.4-.5 2.6.2 2 .5 2.6.7.8 1.4.8zM147.7 100.6v9.9h-2v-7.4c0-.2 0-.3 0-.4-.4.3-.8.6-1.2.8s-.8.4-1.2.5l-.3-1.7c.5-.1 1-.3 1.6-.6.6-.4 1.1-.7 1.4-1.1zM155.2 110.7c-1.3 0-2.3-.4-3-1.3s-1-2.1-1-3.8.3-2.9 1-3.8 1.7-1.3 3-1.3 2.3.4 3 1.3 1 2.1 1 3.8-.3 2.9-1 3.8c-.7.8-1.7 1.3-3 1.3zm0-1.7c.6 0 1.1-.3 1.4-.8s.5-1.4.5-2.6-.2-2-.5-2.6-.8-.8-1.4-.8-1.1.3-1.4.8-.5 1.4-.5 2.6.2 2 .5 2.6.8.8 1.4.8zM166.3 110.7c-1.3 0-2.3-.4-3-1.3s-1-2.1-1-3.8.3-2.9 1-3.8 1.7-1.3 3-1.3 2.3.4 3 1.3 1 2.1 1 3.8-.3 2.9-1 3.8c-.7.8-1.7 1.3-3 1.3zm0-1.7c.6 0 1.1-.3 1.4-.8s.5-1.4.5-2.6-.2-2-.5-2.6-.8-.8-1.4-.8-1.1.3-1.4.8-.5 1.4-.5 2.6.2 2 .5 2.6.7.8 1.4.8z"/></g></svg>
